X:0
T:Lamentation for McDonald of Keppoch
S:Logan's Inverness Collection
M:9/8
L:1/8
Q:3/8=60
K:AMin
% dorian/minor/phrygian pentatonic
A3 A>GA c2c |    c2A A>GA G3|e3 e>de a2g|    e2d c>AG    A3 |
g3 age  g>ed|{cd}e2d c>AG G3|A3 A>GA c2d|{cd}e2d c>AG {G}A3|]
